src/assets/media/icon_building.svg

<svg width="18" height="17" viewBox="0 0 18 17" fill="none" xmlns="http://www.w3.org/2000/svg">
    <path d="M0.330589 16.7012V0.951172H8.88069V4.55118H17.6731V16.7012H0.330589ZM1.68057 15.3512H3.93063V13.1012H1.68057V15.3512ZM1.68057 11.7512H3.93063V9.50116H1.68057V11.7512ZM1.68057 8.15118H3.93063V5.90116H1.68057V8.15118ZM1.68057 4.55118H3.93063V2.30115H1.68057V4.55118ZM5.28063 15.3512H7.53069V13.1012H5.28063V15.3512ZM5.28063 11.7512H7.53069V9.50116H5.28063V11.7512ZM5.28063 8.15118H7.53069V5.90116H5.28063V8.15118ZM5.28063 4.55118H7.53069V2.30115H5.28063V4.55118ZM8.88069 15.3512H16.3231V5.90116H8.88069V8.15118H10.8538V9.50116H8.88069V11.7512H10.8538V13.1012H8.88069V15.3512ZM12.8269 9.50116V8.15118H14.1769V9.50116H12.8269ZM12.8269 13.1012V11.7512H14.1769V13.1012H12.8269Z"
          fill="#667085"/>
</svg>

<svg width="18" height="17" fill="none" xmlns="http://www.w3.org/2000/svg">
    <path d="M.33 16.701V.951h8.55v3.6h8.793v12.15H.331zm1.35-1.35h2.25v-2.25H1.68v2.25zm0-3.6h2.25v-2.25H1.68v2.25zm0-3.6h2.25v-2.25H1.68v2.25zm0-3.6h2.25v-2.25H1.68v2.25zm3.6 10.8h2.25v-2.25H5.28v2.25zm0-3.6h2.25v-2.25H5.28v2.25zm0-3.6h2.25v-2.25H5.28v2.25zm0-3.6h2.25v-2.25H5.28v2.25zm3.6 10.8h7.443v-9.45H8.881v2.25h1.973v1.35H8.88v2.25h1.973v1.35H8.88v2.25zm3.947-5.85v-1.35h1.35v1.35h-1.35zm0 3.6v-1.35h1.35v1.35h-1.35z"
          fill="#667085"/>
</svg>
